assets/Railway track/Flat/railway_track_flat.svg

<svg width="32" height="32" viewBox="0 0 32 32" fill="none" xmlns="http://www.w3.org/2000/svg">
<path d="M26.5 2H5.5C3.567 2 2 3.567 2 5.5V17.9829H30V5.5C30 3.567 28.433 2 26.5 2Z" fill="#50E2FF"/>
<path d="M2 12.0028V26.5C2 27.3417 2.29709 28.1139 2.79211 28.7177C3.43399 29.5005 4.40866 29.1345 5.5 29.1345H26.5C27.6009 29.1345 28.5831 29.4917 29.2247 28.697C29.7089 28.0972 29.9991 27.3343 30 26.5037L30 26.5L30 12C26.5057 12.005 24.7601 13.0926 23.0155 14.1796C21.2689 15.2679 19.5232 16.3555 16.025 16.3555C12.5275 16.3555 10.7668 15.2665 9.00685 14.178C7.24812 13.0902 5.49001 12.0028 2 12.0028Z" fill="#00D26A"/>
<path d="M27.8795 28L18.04 16.1847C17.48 16.2546 14.49 16.3445 13.92 16.2746L4.05701 28H27.8795Z" fill="#1C1C1C"/>
<path d="M5.50001 30H26.5C27.6103 30 28.5998 29.483 29.241 28.6766L28.102 27.3762C27.9222 27.1683 27.5526 27 27.2829 27H4.86693C4.58723 27 4.21763 27.1584 4.02783 27.3663L2.77484 28.6964C3.41643 29.4915 4.39883 30 5.50001 30ZM18.21 16.9939C18.48 16.9939 18.71 16.9144 18.71 16.825C18.71 16.7355 18.59 16.5069 18.44 16.328C18.29 16.1491 17.95 16 17.67 16H14.42C14.14 16 13.79 16.1491 13.62 16.328C13.45 16.5069 13.32 16.7355 13.32 16.825C13.32 16.9244 13.54 16.9939 13.82 16.9939H18.21ZM21.21 19.67C21.21 19.85 20.98 20 20.71 20H11.29C11.02 20 10.79 19.85 10.79 19.67C10.79 19.49 10.94 19.17 11.13 18.97L11.68 18.37C11.87 18.17 12.24 18 12.52 18H19.59C19.87 18 20.23 18.17 20.41 18.38L20.89 18.95C21.07 19.17 21.21 19.49 21.21 19.67ZM25.41 24.5017C25.41 24.7708 25.18 25 24.91 25H7.06001C6.79001 25 6.56001 24.7807 6.56001 24.5017C6.56001 24.2326 6.71001 23.8439 6.90001 23.6346L8.09001 22.3688C8.28001 22.1694 8.66001 22 8.93001 22H23.2C23.48 22 23.85 22.1694 24.02 22.3787L25.08 23.6146C25.26 23.8339 25.41 24.2326 25.41 24.5017Z" fill="#8C5543"/>
<path d="M18.21 16.655C18.48 16.655 18.71 16.7348 18.71 16.8245C18.71 16.9142 18.49 16.984 18.21 16.9939H13.82C13.54 16.9939 13.32 16.9142 13.32 16.8245C13.32 16.7248 13.54 16.655 13.82 16.655H18.21ZM21.21 19.6607C21.21 19.4756 20.98 19.3214 20.71 19.3214H11.29C11.02 19.3214 10.79 19.4756 10.79 19.6607C10.79 19.8458 11.01 20 11.29 20H20.71C20.99 20 21.21 19.8458 21.21 19.6607ZM25.5 24.5C25.5 24.23 25.2682 24 24.996 24H7.00398C6.73183 24 6.5 24.22 6.5 24.5C6.5 24.77 6.73183 25 7.00398 25H24.996C25.2682 25 25.5 24.78 25.5 24.5Z" fill="#6D4534"/>
<path d="M5.5 30H6.5L15.8 16H15.19L5.5 30ZM26.54 30H25.54L16.27 16H16.89L26.54 30Z" fill="#9B9B9B"/>
<path d="M5 30H6L15.65 16H15.04L5 30ZM27.04 30H26.04L16.42 16H17.04L27.04 30Z" fill="#D3D3D3"/>
</svg>

<svg xmlns="http://www.w3.org/2000/svg" width="32" height="32" fill="none"><path fill="#50E2FF" d="M26.5 2h-21A3.5 3.5 0 0 0 2 5.5v12.483h28V5.5A3.5 3.5 0 0 0 26.5 2Z"/><path fill="#00D26A" d="M2 12.003V26.5c0 .842.297 1.614.792 2.218.642.782 1.617.416 2.708.416h21c1.1 0 2.083.358 2.725-.437.484-.6.774-1.363.775-2.193V12c-3.494.005-5.24 1.093-6.985 2.18-1.746 1.088-3.492 2.175-6.99 2.175-3.497 0-5.258-1.088-7.018-2.177C7.248 13.09 5.49 12.003 2 12.003Z"/><path fill="#1C1C1C" d="m27.88 28-9.84-11.815c-.56.07-3.55.16-4.12.09L4.057 28H27.88Z"/><path fill="#8C5543" d="M5.5 30h21c1.11 0 2.1-.517 2.741-1.323l-1.139-1.3a1.238 1.238 0 0 0-.82-.377H4.868c-.28 0-.65.158-.84.366l-1.252 1.33A3.493 3.493 0 0 0 5.5 30Zm12.71-13.006c.27 0 .5-.08.5-.169 0-.09-.12-.318-.27-.497-.15-.179-.49-.328-.77-.328h-3.25c-.28 0-.63.15-.8.328-.17.179-.3.407-.3.497 0 .1.22.169.5.169h4.39Zm3 2.676c0 .18-.23.33-.5.33h-9.42c-.27 0-.5-.15-.5-.33 0-.18.15-.5.34-.7l.55-.6c.19-.2.56-.37.84-.37h7.07c.28 0 .64.17.82.38l.48.57c.18.22.32.54.32.72Zm4.2 4.832c0 .269-.23.498-.5.498H7.06a.5.5 0 0 1-.5-.498c0-.27.15-.658.34-.867l1.19-1.266c.19-.2.57-.369.84-.369H23.2c.28 0 .65.17.82.379l1.06 1.236c.18.219.33.618.33.887Z"/><path fill="#6D4534" d="M18.21 16.655c.27 0 .5.08.5.17 0 .09-.22.159-.5.169h-4.39c-.28 0-.5-.08-.5-.17 0-.1.22-.169.5-.169h4.39Zm3 3.006c0-.185-.23-.34-.5-.34h-9.42c-.27 0-.5.155-.5.34 0 .185.22.339.5.339h9.42c.28 0 .5-.154.5-.34ZM25.5 24.5a.51.51 0 0 0-.504-.5H7.004a.503.503 0 0 0-.504.5c0 .27.232.5.504.5h17.992c.272 0 .504-.22.504-.5Z"/><path fill="#9B9B9B" d="M5.5 30h1l9.3-14h-.61L5.5 30Zm21.04 0h-1l-9.27-14h.62l9.65 14Z"/><path fill="#D3D3D3" d="M5 30h1l9.65-14h-.61L5 30Zm22.04 0h-1l-9.62-14h.62l10 14Z"/></svg>
